X: 6326
T: Carrowmore
R: waltz
M: 3/4
K: Eminor
D6|GA{c}AJB3-|B2{c}BABB|Jc6|E4{A}ED|JG6-|G2z3G|{A}FE3-E2|JF{A}FE4-|E{A}ED4-|
D6-|D2z2D2-|D~G2~A2JB-|B4{c}BA|JB2Jc4-|c2E3{A}E|DFJG4-|G4z2|zA!>!B3~A-|A6|
{c}BJA4(3B/A/B/|(3AGE D4-|D6-|D2z2D2|G/{A}G/A{c}AJB3-|B2{c}BABB|-BJc3-c2|
z2E2{A}ED|F2JG4-|G3z2~G-|GF2E3-|E{A}F2JG3|Az {c}AJB2z|f2Jg4-|!>!g4~f2|
dJe4~f-|fJe4{a}e|dBd4|Je2zAJB2-|B3-B2z|zG2ABB|Jc6-|!>!c~B2zD2|E2JA4-|A6-|A4z2|
z2G2A/B/d|zdJe4-|e2{a}e/d/ege|Jf6-|!>!f2edG{c}A|JB6-|B2z2{c}BA|FJG4{A}G/{A}G/|
F2Bdz d|Je3-e2{fe}d|egJf4-|!>!f4{a}ed-|d6-|d4z2|zf2Jg3-|!>!g3~f3|
Je3-e2~f-|fJg4{a}g|dga{c'}aJ.bz|z2d4|Je6-|e4zd|BB2c3-|c3-c2~B-|BD2E3|
JA6-|A6-|!>!A4z2|z2D3G|A{c}AJB4-|B2{c}BABB|Jc6-|c2E4-|E{A}EDF2JG-|G6-|G6-|G4z2

